public/assets/img/icon_twitter01.svg

<svg width="21" height="22" viewBox="0 0 21 22" fill="none" xmlns="http://www.w3.org/2000/svg">
<path d="M18.8413 6.3429C18.8547 6.52944 18.8547 6.71602 18.8547 6.90256C18.8547 12.5922 14.5241 19.1481 6.60913 19.1481C4.17067 19.1481 1.90546 18.4419 0 17.216C0.346459 17.256 0.679547 17.2693 1.03934 17.2693C3.05136 17.2693 4.90354 16.5898 6.3826 15.4305C4.49047 15.3905 2.90481 14.1513 2.35848 12.4457C2.625 12.4856 2.89148 12.5123 3.17133 12.5123C3.55774 12.5123 3.94419 12.459 4.30393 12.3658C2.33186 11.966 0.852756 10.2338 0.852756 8.14176V8.08848C1.4257 8.40828 2.092 8.60815 2.79817 8.63477C1.6389 7.86191 0.879416 6.54277 0.879416 5.05037C0.879416 4.2509 1.09257 3.51803 1.46569 2.87843C3.58436 5.4901 6.76901 7.19565 10.34 7.38223C10.2734 7.06244 10.2334 6.72935 10.2334 6.39622C10.2334 4.02437 12.1522 2.09229 14.5374 2.09229C15.7766 2.09229 16.8959 2.61195 17.682 3.45142C18.6547 3.26488 19.5875 2.90509 20.4136 2.41208C20.0938 3.41147 19.4143 4.25094 18.5215 4.78389C19.3876 4.69067 20.2271 4.45077 20.9999 4.11768C20.4137 4.97043 19.6808 5.72992 18.8413 6.3429Z" fill="#3EA1D1"/>
</svg>

<svg xmlns="http://www.w3.org/2000/svg" width="21" height="22" fill="none" viewBox="0 0 21 22"><path fill="#3ea1d1" d="M18.841 6.343c.014.186.014.373.014.56 0 5.69-4.33 12.245-12.246 12.245A12.16 12.16 0 0 1 0 17.216c.346.04.68.053 1.04.053a8.62 8.62 0 0 0 5.343-1.838 4.31 4.31 0 0 1-4.025-2.985c.267.04.533.066.813.066.387 0 .773-.053 1.133-.146A4.305 4.305 0 0 1 .853 8.142v-.054c.573.32 1.239.52 1.945.547A4.3 4.3 0 0 1 .88 5.05c0-.8.214-1.532.587-2.172a12.23 12.23 0 0 0 8.874 4.504 5 5 0 0 1-.107-.986 4.3 4.3 0 0 1 4.304-4.304c1.24 0 2.359.52 3.145 1.36a8.5 8.5 0 0 0 2.732-1.04c-.32 1-1 1.839-1.893 2.372A8.6 8.6 0 0 0 21 4.118a9.3 9.3 0 0 1-2.159 2.225"/></svg>
